X:87
T:The Harvest Home Reel
R:Reel
S:Jim McKillop, Antrim (fiddle).
D:Ulster TV program 'From Glen To Glen'
H:Follows the "Harvest Home' hornpipe.
Q:400
M:4/4
Z:Bernie Stocks
K:D
|: D2FA BAFA | dAFA BAFD | A,2CE AECE | FECE AECE | D2FA BAFA | dAFA BAFA | 
(3.f.g.a fa gecd |1 eddc d2AF :|2 eddc d2cd |: eA (3.A.A.A fA (3.A.A.A | 
gA (3.A.A.A aA (3.A.A.A | b3a gbfg | (3.e.f.e (3.d.c.B (3.A.B.A (3.G.F.E |
DAFA DAFA | defe dcBA | a^gaf =gecd |1 eddc cBcd :|2 eddc d2AF ||
<end>
<start>
